X:1
T:Bits of Sunshine
T:Bits of Sunshine
T:Thomas O’Neill
T:Isaiah Mench Chambers, 1901
T:Public Domain Courtesy of the Cyber Hymnal™
T:Public Domain Courtesy of the Cyber Hymnal™
C:Thomas O’Neill
Z:Public Domain
Z:Courtesy of the Cyber Hymnal™
%%score 1 ( 2 3 )
L:1/8
Q:1/4=86
M:2/4
K:C
V:1 treble 
V:2 bass 
V:3 bass 
V:1
 [EG] | [EG][Ec] [CE][EA] | [EG] [EG]2 [EG] | [EG][EA] [GB][Gc] | [FB]3 [FB] | [FB][Fd] [FA][Fc] | %6
w: 1.~A|lit- tle bit of|sun- shine, A|lit- tle word or|two, Just|fall- ing as the|
w: 2.~A|lit- tle bit of|sun- shine, E-|nough to throw a|smile Up-|on some down- cast|
w: 3.~These|lit- tle bits of|sun- shine Caught|from the skies a-|bove, Just|fall- ing with the|
 [FB] [FB]2 [FA] | [FG][FA] [B,F][B,G] | [CE]3 [EG] | [EG][Ec] [CE][EA] | [EG] [EG]2 [EG] | %11
w: mo- ments Sug-|gest the way to|you; Ah!|these will change the|fea- tures Of|
w: spir- it, His|sor- rows to be-|guile; Ah!|this is what is|need- ed More|
w: mo- ments, From|out a heart of|love; Such|ser- vice tru- ly|giv- en To|
 [EG][EA] [GB][Gc] | [FB]3 [FB] | [FB][Fd] [FA][FB] | [Ec] [EG]2 [EG] | [FA]>[Fc] [Ec][DB] | %16
w: all the world’s sad|face, And|give some soul the|cour- age To|stand with- in its|
w: oft- en than we|know, By|those whose hearts are|ach- ing A-|long their paths be-|
w: each will sure- ly|bring, Its|bless- ing here, and|yon- der, From|Christ our Lord and|
 [Ec]3 z |:"^Refrain" [CE] [EG]3 | [FA] [Fc]2 [Fc] | [Ec][EG] [FA]>[FG] | [EG] [CE]3 | [CE] [EG]3 | %22
w: place.||||||
w: low.|Sun- shine;|sun- shine, A|lit- tle bit of|sun- shine;|Sun- shine;|
w: king.||||||
 [FA] [Fc]2 [Fc] | [FB]>[FA] [FG][Fd] | [Ec]4 :| %25
w: |||
w: sun- shine, From|out a heart of|love.|
w: |||
V:2
 [C,C] | [C,C][C,G,] [C,G,][C,C] | [C,C] [C,C]2 [C,C] | [C,C][C,G,] [E,G,][E,G,] | [D,G,]3 [D,G,] | %5
 G,[G,B,] [G,C][G,A,] | [G,D] [G,D]2 [G,C] | [G,B,][G,B,] [G,,G,][G,,G,] | [C,G,]3 [C,C] | %9
 [C,C][C,G,] [C,G,][C,C] | [C,C] [C,C]2 [C,C] | [C,C][C,G,] [E,G,][E,G,] | [D,G,]3 [D,G,] | %13
 G,[G,B,] [G,C][G,D] | [C,C] [C,C]2 [C,C] | [F,C]>[F,A,] G,G, | [C,G,]3 z |: [C,G,] [C,C]3 | %18
 [F,C] [F,A,]2 [F,A,] | G,G, [G,B,]>[G,B,] | [C,C] [C,G,]3 | [C,G,] [C,C]3 | [F,C] [F,A,]2 [F,A,] | %23
 G,>[G,C] [G,B,][G,B,] | [C,G,C]4 :| %25
V:3
 x | x4 | x4 | x4 | x4 | G, x3 | x4 | x4 | x4 | x4 | x4 | x4 | x4 | G, x3 | x4 | x2 G,G, | x4 |: %17
 x4 | x4 | G,G, x2 | x4 | x4 | x4 | G,3/2 x5/2 | x4 :| %25

